svgs/regular/hockey-stick-puck.svg

<svg xmlns="http://www.w3.org/2000/svg" viewBox="0 0 640 512"><!--! Font Awesome Pro 6.6.0 by @fontawesome - https://fontawesome.com License - https://fontawesome.com/license (Commercial License) Copyright 2024 Fonticons, Inc. --><path d="M499 2.7c11.8 6.1 16.4 20.6 10.3 32.3L282.7 473.1c-12.4 23.9-37 38.9-64 38.9L64 512c-35.3 0-64-28.7-64-64l0-64c0-35.3 28.7-64 64-64l240 0c1.3 0 2.5 .1 3.7 .3L466.7 13C472.8 1.2 487.3-3.4 499 2.7zM283 368l-139 0 0 96 74.8 0c9 0 17.2-5 21.3-13L283 368zM64 368c-8.8 0-16 7.2-16 16l0 64c0 8.8 7.2 16 16 16l32 0 0-96-32 0zm368 64l0 32 160 0 0-32-160 0zm-48 0c0-26.5 21.5-48 48-48l160 0c26.5 0 48 21.5 48 48l0 32c0 26.5-21.5 48-48 48l-160 0c-26.5 0-48-21.5-48-48l0-32z"/></svg>

<svg xmlns="http://www.w3.org/2000/svg" viewBox="0 0 640 512"><!--! Font Awesome Pro 6.5.2 by @fontawesome - https://fontawesome.com License - https://fontawesome.com/license (Commercial License) Copyright 2024 Fonticons, Inc. --><path d="M499 2.7c11.8 6.1 16.4 20.6 10.3 32.3L282.7 473.1c-12.4 23.9-37 38.9-64 38.9H64c-35.3 0-64-28.7-64-64V384c0-35.3 28.7-64 64-64H304c1.3 0 2.5 .1 3.7 .3L466.7 13C472.8 1.2 487.3-3.4 499 2.7zM283 368H144v96h74.8c9 0 17.2-5 21.3-13L283 368zM64 368c-8.8 0-16 7.2-16 16v64c0 8.8 7.2 16 16 16H96V368H64zm368 64v32H592V432H432zm-48 0c0-26.5 21.5-48 48-48H592c26.5 0 48 21.5 48 48v32c0 26.5-21.5 48-48 48H432c-26.5 0-48-21.5-48-48V432z"/></svg>
